cy/import-solid-alerted.svg

<svg viewBox="0 0 36 36" xmlns="http://www.w3.org/2000/svg" height="1em" width="1em">
  <path d="M3 21a1 1 0 1 0 0 2h5v-2Z" class="clr-i-solid--alerted clr-i-solid-path-1--alerted"/>
  <path d="M22.23 15.4A3.68 3.68 0 0 1 19 9.89L22.45 4h-7.58L8 10.86V21h7.2l-3.25-3.25a1 1 0 0 1 1.41-1.41L19 22l-5.68 5.68a1 1 0 0 1-1.41-1.41L15.23 23H8v7a2 2 0 0 0 2 2h18a2 2 0 0 0 2-2V15.4ZM16 12h-6v-.32L15.69 6H16Z" class="clr-i-solid--alerted clr-i-solid-path-2--alerted"/>
  <path d="M26.85 1.14 21.13 11a1.28 1.28 0 0 0 1.1 2h11.45a1.28 1.28 0 0 0 1.1-2l-5.72-9.86a1.28 1.28 0 0 0-2.21 0Z" class="clr-i-solid--alerted clr-i-solid-path-3--alerted clr-i-alert"/>
  <path fill="none" d="M0 0h36v36H0z"/>
</svg>

<svg version="1.1" viewBox="0 0 36 36" preserveAspectRatio="xMidYMid meet" xmlns="http://www.w3.org/2000/svg" height="1em" width="1em">
  <path d="M3,21a1,1,0,1,0,0,2H8V21Z" class="clr-i-solid--alerted clr-i-solid-path-1--alerted"/>
  <path d="M22.23,15.4A3.68,3.68,0,0,1,19,9.89L22.45,4H14.87L8,10.86V21H15.2l-3.25-3.25a1,1,0,0,1,1.41-1.41L19,22l-5.68,5.68a1,1,0,0,1-1.41-1.41L15.23,23H8v7a2,2,0,0,0,2,2H28a2,2,0,0,0,2-2V15.4ZM16,12H10v-.32L15.69,6H16Z" class="clr-i-solid--alerted clr-i-solid-path-2--alerted"/>
  <path d="M26.85,1.14,21.13,11A1.28,1.28,0,0,0,22.23,13H33.68A1.28,1.28,0,0,0,34.78,11L29.06,1.14A1.28,1.28,0,0,0,26.85,1.14Z" class="clr-i-solid--alerted clr-i-solid-path-3--alerted clr-i-alert"/>
  <rect x="0" y="0" width="36" height="36" fill-opacity="0"/>
</svg>
